X: 1
T: Off With You!
M: 4/4
L: 1/8
R: reel
K: Edor
|: dEBE eEBE | dEBE FD~D2 | dEBE GBeB |1 cAdA FDDc :|2 cAdA FD~D2 ||
gebe geef | gebe fddf | gebe gebe | cAdA FDDf |
gebe gb~b2 | gebe fddf | ebgb fbeg | fcdA FDDc ||
